X: 1
T:the Highland Laddie
R:Reel
O:England
M:C|
A:Westmorland
N:P21 1/3
K:D
f|eAcA {cd}e2c2|fBBc fBBf|\
ecac e2c2|A/2B/2c/2d/2 eB cAA:|
|:a|fefa f2ec|fBBc fBBf|\
eacg e2c2|A/2B/2c/2d/2 eB cAA:|
